Esim/img/bg.svg

<svg width="333" height="242" viewBox="0 0 333 242" fill="none" xmlns="http://www.w3.org/2000/svg">
<path d="M291 69C291 67.3431 292.343 66 294 66H303C304.657 66 306 67.3431 306 69V240H291V69Z" fill="#C4C4C4" fill-opacity="0.1"/>
<path d="M251 40C251 38.3431 252.343 37 254 37H263C264.657 37 266 38.3431 266 40V240H251V40Z" fill="#C4C4C4" fill-opacity="0.1"/>
<path d="M226 98C226 96.3431 227.343 95 229 95H238C239.657 95 241 96.3431 241 98V240H226V98Z" fill="#C4C4C4" fill-opacity="0.03"/>
<path d="M201 69C201 67.3431 202.343 66 204 66H213C214.657 66 216 67.3431 216 69V240H201V69Z" fill="#C4C4C4" fill-opacity="0.07"/>
<path d="M177 57C177 55.3431 178.343 54 180 54H189C190.657 54 192 55.3431 192 57V240H177V57Z" fill="#C4C4C4" fill-opacity="0.05"/>
<path d="M152 108C152 106.343 153.343 105 155 105H164C165.657 105 167 106.343 167 108V240H152V108Z" fill="#C4C4C4" fill-opacity="0.03"/>
<path d="M127 45C127 43.3431 128.343 42 130 42H139C140.657 42 142 43.3431 142 45V240H127V45Z" fill="#C4C4C4" fill-opacity="0.08"/>
<path d="M102 83C102 81.3431 103.343 80 105 80H114C115.657 80 117 81.3431 117 83V240H102V83Z" fill="#C4C4C4" fill-opacity="0.05"/>
<path d="M77 151C77 149.343 78.3431 148 80 148H89C90.6569 148 92 149.343 92 151V240H77V151Z" fill="#C4C4C4" fill-opacity="0.1"/>
<path d="M51 108C51 106.343 52.3431 105 54 105H63C64.6569 105 66 106.343 66 108V240H51V108Z" fill="#C4C4C4" fill-opacity="0.03"/>
<path d="M26 130C26 128.343 27.3431 127 29 127H38C39.6569 127 41 128.343 41 130V240H26V130Z" fill="#C4C4C4" fill-opacity="0.05"/>
<path d="M0 88C0 86.3431 1.34315 85 3 85H12C13.6569 85 15 86.3431 15 88V240H0V88Z" fill="#C4C4C4" fill-opacity="0.08"/>
<path d="M276 3C276 1.34314 277.343 0 279 0H288C289.657 0 291 1.34315 291 3V240H276V3Z" fill="#C4C4C4" fill-opacity="0.05"/>
<path d="M318 5C318 3.34314 319.343 2 321 2H330C331.657 2 333 3.34315 333 5V242H318V5Z" fill="#C4C4C4" fill-opacity="0.05"/>
</svg>

<svg width="333" height="242" fill="none" xmlns="http://www.w3.org/2000/svg"><path d="M291 69a3 3 0 013-3h9a3 3 0 013 3v171h-15V69zM251 40a3 3 0 013-3h9a3 3 0 013 3v200h-15V40z" fill="#C4C4C4" fill-opacity=".1"/><path d="M226 98a3 3 0 013-3h9a3 3 0 013 3v142h-15V98z" fill="#C4C4C4" fill-opacity=".03"/><path d="M201 69a3 3 0 013-3h9a3 3 0 013 3v171h-15V69z" fill="#C4C4C4" fill-opacity=".07"/><path d="M177 57a3 3 0 013-3h9a3 3 0 013 3v183h-15V57z" fill="#C4C4C4" fill-opacity=".05"/><path d="M152 108a3 3 0 013-3h9a3 3 0 013 3v132h-15V108z" fill="#C4C4C4" fill-opacity=".03"/><path d="M127 45a3 3 0 013-3h9a3 3 0 013 3v195h-15V45z" fill="#C4C4C4" fill-opacity=".08"/><path d="M102 83a3 3 0 013-3h9a3 3 0 013 3v157h-15V83z" fill="#C4C4C4" fill-opacity=".05"/><path d="M77 151a3 3 0 013-3h9a3 3 0 013 3v89H77v-89z" fill="#C4C4C4" fill-opacity=".1"/><path d="M51 108a3 3 0 013-3h9a3 3 0 013 3v132H51V108z" fill="#C4C4C4" fill-opacity=".03"/><path d="M26 130a3 3 0 013-3h9a3 3 0 013 3v110H26V130z" fill="#C4C4C4" fill-opacity=".05"/><path d="M0 88a3 3 0 013-3h9a3 3 0 013 3v152H0V88z" fill="#C4C4C4" fill-opacity=".08"/><path d="M276 3a3 3 0 013-3h9a3 3 0 013 3v237h-15V3zM318 5a3 3 0 013-3h9a3 3 0 013 3v237h-15V5z" fill="#C4C4C4" fill-opacity=".05"/></svg>
